X: 337
T: Come along with me
C: anon.
O: Ireland
B: Francis O'Neill: "The Dance Music of Ireland" (1907) no. 337
R: Double jig
Z: Transcribed by Frank Nordberg - http://www.musicaviva.com
F: http://www.musicaviva.com/abc/tunes/ireland/oneill-1001/oneill-1001-033
7.abc
M: 6/8
L: 1/8
K: G
g|dBG GFG|(GB)(d e)fg|dBG GB(d|e)cA (AB)c|dBG EF(G|D)G(B A)Bc|dec Bc(A|B)
GG G2:|
||B|gfg GB(d|g)bg (af)d|gfg GB(d|e)cA A2d|gfe de(d|c)Bc (AB)c|dec Bc(A|B)
GG G2:|
W:
W:
W: From Musica Viva - http://www.musicaviva.com
W: the Internet center for free sheet music downloads.


